X:42
T:O Lord, How Shall I Meet Thee
%%stretchlast false
M:4/4
L:1/4
K:C clef=C1
"^I"[CEGc]2 [CGce] "^IV¹"[A,Acf] | "^V"[G,DBg] "^I"[CEcg] "^ii"[DFAf] [DFBf] | "^vi"[A,Ace] "^IV"[F,Acf] "^I"[CGce] "^I¹"[E,Gc] | "^ii¹"[F,FAd] "^V"[G,DBd] "^I"[CEGc]2 | [CEGc]2 [CGce] "^IV¹"[A,Acf] | "^V"[G,DBg] "^I"[CEcg] "^ii"[DFAf] [DFBf] | "^vi"[A,Ace] "^IV"[F,Acf] "^I"[CGce] "^I¹"[E,Gc] | "^ii¹"[F,FAd] "^V"[G,DBd] "^I"[CEGc]2 | [CEcg]2 "^IV"[Fca] "^vii°¹"[DFdb] | "^I"[CGec'] "^V"[G,Gdb] [DGda] "^V/V"[D^Fda] | "^V"[G,GBg] "^I"[CGce] "^IV"[F,Fca] "^V"[G,DBg] | "^IV¹"[A,Acf] "^I"[CGce] "^V"[G,GBd]2 | "^I"[CEGe]2 "^vi"[A,EAc] "^V"[G,GBd] | "^I"[CGce] "^I¹"[E,Gcg] "^IV"[F,Acf]2 | "^I"[CGce] [CGeg] "^IV¹"[A,Acf] "^I"[CGce] | [G,Gcd] "^V"[G,GBd]/ "^V7"[G,FBd]/ "^I"[CEc]2 |]
